X: 41906
T: Wae's Me For Prince Charlie
R: hornpipe
M: 4/4
K: Gmixolydian
D2|G2 A>B {d}c3 B|A>G A>B G2 dB|G2 AB ce dB|
{B}A4 G2 G>A|B2 B>c d3 d|{d}e2 e>d d2 dB|GG AB ce dB|
{B}A4 G3 c|BA Bc d3 d|e2 e>d d2 dB|GG AB ce dB|
{B}A4 G2||

